cssgg/eye-alt.svg

<svg
  width="24"
  height="24"
  viewBox="0 0 24 24"
  fill="none"
  xmlns="http://www.w3.org/2000/svg"
>
  <path
    d="M14 12C14 13.1046 13.1046 14 12 14C10.8954 14 10 13.1046 10 12C10 10.8954 10.8954 10 12 10C13.1046 10 14 10.8954 14 12Z"
    fill="currentColor"
  />
  <path
    fill-rule="evenodd"
    clip-rule="evenodd"
    d="M12 3C6.40848 3 1.71018 6.82432 0.378052 12C1.71018 17.1757 6.40848 21 12 21C17.5915 21 22.2898 17.1757 23.6219 12C22.2898 6.82432 17.5915 3 12 3ZM16 12C16 14.2091 14.2091 16 12 16C9.79086 16 8 14.2091 8 12C8 9.79086 9.79086 8 12 8C14.2091 8 16 9.79086 16 12Z"
    fill="currentColor"
  />
</svg>

<svg viewBox="0 0 24 24" xmlns="http://www.w3.org/2000/svg"><g><path d="M14 12c0 1.1-.9 2-2 2 -1.11 0-2-.9-2-2 0-1.11.89-2 2-2 1.1 0 2 .89 2 2Z"/><path fill-rule="evenodd" d="M12 3C6.4 3 1.71 6.82.37 12c1.33 5.17 6.03 9 11.62 9 5.59 0 10.28-3.83 11.62-9 -1.34-5.18-6.04-9-11.63-9Zm4 9c0 2.2-1.8 4-4 4 -2.21 0-4-1.8-4-4 0-2.21 1.79-4 4-4 2.2 0 4 1.79 4 4Z"/></g></svg>
